X: 1
T:the 16th of October
R:Polka
O:England
M:2/4
A:Westmorland
N:P10 2/2
K:D
d4 fede|f2d2d2c2|B4efed|c2A2A2c2|\
d4fede|f2d2d2c2|B2e2 dcBc|d4D4:|
|:AG|F2A2A2G2|F2A2A2G2|F2A2d2f2|d2cB A2G2|\
F2A2A2G2|F2A2A2c2|d2f2 gfed|a6A2:|
